public/img/general/logos/mazda.svg

<svg width="68" height="56" viewBox="0 0 68 56" fill="none" xmlns="http://www.w3.org/2000/svg">
<path d="M29.2443 0.0854568C23.3066 0.469204 17.6157 1.42926 14.7768 2.49866C7.61836 5.2007 2.325 12.0847 0.528684 21.0395C-0.472632 26.0722 -0.0338684 32.3394 1.69437 37.674C2.325 39.6079 4.12132 43.2143 5.23267 44.7637C7.01523 47.2457 9.44288 49.5495 11.5817 50.8115C15.0925 52.896 20.9202 54.5279 27.4618 55.2823C29.7656 55.543 37.3628 55.5017 40.0092 55.2136C48.0727 54.3216 53.6542 52.5803 57.3568 49.8102C63.3359 45.3256 66.7091 38.2496 67.3267 28.8974C67.8885 20.4914 65.0366 12.3316 59.7295 7.1208C55.6981 3.14373 51.4741 1.48427 43.0674 0.552414C38.8847 0.0854568 32.5082 -0.133926 29.2443 0.0854568ZM38.6103 4.30942C45.0969 4.98132 51.2403 6.88767 54.2986 9.16401C54.8198 9.54776 55.5055 10.2334 55.848 10.6997C56.7118 11.8791 57.123 13.3598 56.698 13.8673C56.6155 13.9767 55.6692 14.4292 54.6135 14.8686C48.5939 17.3781 42.7518 20.5045 39.666 22.8771C37.5685 24.4815 34.647 28.1705 33.9614 30.0768C33.8651 30.3512 33.742 30.5706 33.7007 30.5706C33.6457 30.5706 33.5226 30.3099 33.4126 29.9943C32.9738 28.6367 30.1899 24.9616 28.5305 23.5352C25.6916 21.0808 19.7951 17.8306 12.9248 14.923C10.4153 13.8673 10.3603 13.8123 10.6484 12.5503C11.0047 10.9734 12.3897 9.46454 14.6936 8.16201C17.9162 6.33818 23.9228 4.71998 29.2842 4.25371C31.4381 4.06253 36.4709 4.09003 38.6103 4.30942ZM8.67401 22.4108C9.97655 23.6859 12.1711 24.5641 18.0813 26.1823C21.4958 27.1148 22.5521 27.5123 24.0053 28.4173C26.8304 30.1862 28.5442 32.3119 30.9169 36.9609C31.5337 38.154 32.2331 39.3472 32.4663 39.5804C32.8638 39.9916 32.9876 40.0329 33.7007 40.0329C34.4139 40.0329 34.537 39.9916 34.9214 39.5941C35.1546 39.361 35.854 38.1678 36.4709 36.9609C38.9528 32.1475 40.5848 30.1593 43.5743 28.3218C44.9594 27.4717 46.1663 27.0192 49.4027 26.1823C54.8192 24.7834 57.2193 23.8371 58.5906 22.5896C59.2487 22.0003 59.5094 21.6021 60.2363 20.0939C60.7163 19.1063 61.1138 18.4207 61.1138 18.572C61.1276 19.0245 60.8532 22.5628 60.6338 24.8116C59.9206 32.065 58.8512 36.7002 57.0687 40.1835C53.9829 46.2175 48.3746 49.4952 39.1179 50.6739C36.4846 51.0171 30.4238 51.0171 27.873 50.6739C21.0577 49.7827 16.4225 47.8213 13.1586 44.4343C9.92222 41.1023 8.16647 36.289 7.11083 27.828C6.80892 25.4141 6.48019 21.9177 6.3564 19.6682L6.27388 18.2969L7.11083 19.9976C7.75522 21.3139 8.11214 21.8758 8.67401 22.4108Z" fill="white"/>
</svg>

<svg width="68" height="56" fill="none" xmlns="http://www.w3.org/2000/svg"><path d="M29.244.085C23.307.47 17.616 1.43 14.777 2.5 7.618 5.2 2.325 12.085.529 21.039c-1.002 5.033-.563 11.3 1.165 16.635.631 1.934 2.427 5.54 3.539 7.09 1.782 2.482 4.21 4.785 6.349 6.047 3.51 2.085 9.338 3.717 15.88 4.471 2.304.261 9.9.22 12.547-.068 8.064-.892 13.645-2.634 17.348-5.404 5.979-4.484 9.352-11.56 9.97-20.913.561-8.406-2.29-16.565-7.597-21.776-4.032-3.977-8.256-5.637-16.663-6.569C38.885.085 32.508-.134 29.244.085zM38.61 4.31c6.487.672 12.63 2.579 15.689 4.855.52.384 1.206 1.07 1.549 1.536.864 1.18 1.275 2.66.85 3.167-.083.11-1.029.562-2.084 1.002-6.02 2.51-11.862 5.636-14.948 8.008-2.097 1.605-5.019 5.294-5.705 7.2-.096.274-.219.494-.26.494-.055 0-.178-.261-.288-.577-.44-1.357-3.223-5.032-4.882-6.459-2.84-2.454-8.736-5.704-15.606-8.612-2.51-1.056-2.565-1.11-2.277-2.373.357-1.577 1.742-3.085 4.046-4.388 3.222-1.824 9.229-3.442 14.59-3.908 2.154-.191 7.187-.164 9.326.055zM8.674 22.411c1.303 1.275 3.497 2.153 9.407 3.771 3.415.933 4.471 1.33 5.924 2.235 2.825 1.77 4.54 3.895 6.912 8.544.617 1.193 1.316 2.386 1.55 2.62.397.41.52.452 1.234.452.713 0 .836-.041 1.22-.439.234-.233.933-1.426 1.55-2.633 2.482-4.813 4.114-6.802 7.103-8.64 1.385-.85 2.592-1.302 5.829-2.139 5.416-1.399 7.816-2.345 9.188-3.592.658-.59.918-.988 1.645-2.496.48-.988.878-1.673.878-1.522.014.453-.26 3.99-.48 6.24-.713 7.253-1.783 11.888-3.565 15.372-3.086 6.034-8.694 9.311-17.951 10.49-2.633.343-8.694.343-11.245 0-6.815-.891-11.45-2.853-14.714-6.24-3.237-3.332-4.993-8.145-6.048-16.606-.302-2.414-.63-5.91-.755-8.16l-.082-1.371.837 1.7c.644 1.317 1.001 1.879 1.563 2.414z" fill="#fff"/></svg>
